/* XPM */
static char *_3aa781e5a7942df8a5e2bb1b643c2adSOl9FPAwIBM4OiHk_1[] = {
/* columns rows colors chars-per-pixel */
"64 64 11 1 ",
"  c None",
". c #794100",
"X c #797979",
"o c #C37100",
"O c #FFA200",
"+ c #EBD320",
"@ c #A2A2A2",
"# c #FFF392",
"$ c #FFDBA2",
"% c gray92",
"& c white",
/* pixels */
"                                                                ",
"                                                                ",
"                                                                ",
"                                                                ",
"                                                                ",
"                                                                ",
"                                                                ",
"                                                                ",
"                                                                ",
"                                                                ",
"                                                                ",
"                                                                ",
"                                                                ",
"                                                                ",
"                                                                ",
"                           ###########                          ",
"                          ##ooooooooo##                         ",
"                         ##oOOO$$O$O$o##                        ",
"                         #oOOOOOOOOOO$o#                        ",
"                         #oOOO.....OO$o#                        ",
"                         #oOOo#####.O$o#                        ",
"                         #oOOo#   #.O+o#                        ",
"                         #oOOo#   #.O+o#                        ",
"                         #oOOo#   #.O+o#                        ",
"                         #oOOo#####oO+o#                        ",
"                         #oOOOoooooOO+o#                        ",
"                  @@@@   ##oOOOOOOOO+o##   @@@@                 ",
"                  @&&@@   ##ooooooooo##   @@&&@                 ",
"                   @&&&@@  ##.OOOOO.##  @@&&&@                  ",
"                    @@&&&@@ ##ooooo## @@&&&@@                   ",
"                      @@&%%X #oOO+o##X%%&@@                     ",
"                        @@@%X#oOOO+o#%@@@                       ",
"                           @X#oOOO+o#@                          ",
"                             #oOO+o##                           ",
"                             #oOO+o##                           ",
"                             #oOOO+o#                           ",
"                             #oOOO+o#                           ",
"                             #oOO+o##                           ",
"                             #oOO+o#                            ",
"                             #oOO+o##                           ",
"                             #oOOO+o#                           ",
"                             #oOOO+o#                           ",
"                             #oOO+o##                           ",
"                             ##oO+o#                            ",
"                              #oooo#                            ",
"                              ######                            ",
"                                                                ",
"                                                                ",
"                                                                ",
"                                                                ",
"                                                                ",
"                                                                ",
"                                                                ",
"                                                                ",
"                                                                ",
"                                                                ",
"                                                                ",
"                                                                ",
"                                                                ",
"                                                                ",
"                                                                ",
"                                                                ",
"                                                                ",
"                                                                "
};
