/* XPM */
static char *_49e7ebbaa514451c49ed23586860eb4DMb0CAyPo9lP9stB_14[] = {
/* columns rows colors chars-per-pixel */
"64 64 10 1 ",
"  c None",
". c black",
"X c #794100",
"o c #797979",
"O c #C37100",
"+ c #8A8A00",
"@ c #FFA200",
"# c #EBD320",
"$ c #A2A2A2",
"% c gray92",
/* pixels */
"                                                                ",
"                                                                ",
"                                                                ",
"                                                                ",
"                                                                ",
"                       .................                        ",
"                     ...$$$$$$$.$$$$$$$...                      ",
"                   ...$$OOoOOO$.$OOOoOO$$...                    ",
"                  ..$$oOOOoOOO$.$OOOoOOOO$$..                   ",
"                 ..$OOoOOOoOOO$.$OOOoOOOOoO$..                  ",
"                 .$OOOoOOOoOOO$.$OOOoOOOOoOO$.                  ",
"                .$OOOOoOOOoooo$.$OOOoOOOOoOOO$.                 ",
"                .$OOOOoOOOoOOO$.$OOOoOOOOoooo$.                 ",
"                .$OOOOoOOOoOOO$.$OOOoOOOOoOOO$.                 ",
"               .$$OOOOoOOOoOOO$.$OOOoOOOOoOOO$..                ",
"               .$oOOOOoOOOoOOO$.$OOOoOOOOoOOO$$.                ",
"               .$oOOOOoOOOoOOO$.$OOOoOOOOoOOOo$.                ",
"               .$oOOOOoOOOoOOO$.$OOOoOOOOoOOOo$.                ",
"              ..$oOOOOoOOOoOOO$.$OOOoOOOOoOOOo$..               ",
"              .$OoOOOOoOOOoOOO$.$OOOoOOOOoOOOoO$.               ",
"              .$OoOOOOoOOOoOOO$.$OOOoOOOOoOOOoO$.               ",
"              .$OoOOOOoOOOoOOO$.$OOOoOOOOoOOOoO$.               ",
"              .$OoOOOOoOOOoOOO$.$OOOoOOOOoOOOoO$.               ",
"              .$OoOOOOoOOOoOOO$.$OOOoOOOOoOOOoO$.               ",
"       @  @   .$OoOOOOoOOOoOOO$.$OOOoOOOOoOOOoO$.   @  @        ",
"       @XX@   .$OoOOOOoOOOoOOO$.$OOOoOOOOoOOOoO$.   @XX@        ",
"       X@@O   .$OoOOOOoOOOoOOO$.$OOOoOOOOoOOOoO$.   X@@O        ",
"       XOOO   .$OoOOOOoOOOoOOO$.$OOOoOOOOoOOOoO$.   XOOO        ",
"       XOOO   .$OoOOOOoOOOoOOO$.$OOOoOOOOoOOOoO$.   XOOO        ",
"       XOOO   .$OoOOOOoOOOoOOO$.$OOOoOOOOoOOOoO$.   XOOO        ",
"       XOOO   .$OoOOOOoOOOo..O$.$O..oOOOOoOOOoO$.   XOOO        ",
"       XOOO   .$OoOOOOoOOO.#+.$.$.+#.OOOOoOOOoO$.   XOOO        ",
"       XOOO   .$OoOOOOoOOO.++.$.$.++.OOOOoOOOoO$.   XOOO        ",
"       XOOO   .$OoOOOOoOOOo..O$.$O..oOOOOoOOOoO$.   XOOO        ",
"       XOOO   .$OoOOOOoOOOoOOO$.$OOOoOOOOoOOOoO$.   XOOO        ",
"       XOOO   .$OoOOOOoOOOoOOO$.$OOOoOOOOoOOOoO$.   XOOO        ",
"       XOOO   .$OoOOOOoOOOoOOO$.$OOOoOOOOoOOOoO$.   XOOO        ",
"       XOOO   .$OoOOOOoOOOoOOO$.$OOOoOOOOoOOOoO$.   XOOO        ",
"       XOOO   .$OoOOOOoOOOoOOO$.$OOOoOOOOoOOOoO$.   XOOO        ",
"       XOOO   .$OoOOOOoOOOoOOO$.$OOOoOOOOoOOOoO$.   XOOO        ",
"       XOOO   .$OoOOOOoOOOoOOO$.$OOOoOOOOoOOOoO$.   XOOO        ",
"       XOOX   .$OoOOOOoOOOoOOO$.$OOOoOOOOoOOOoO$.   XOOX        ",
"        XX    .$OoOOOOoOOOoOOO$.$OOOoOOOOoOOOoO$.    XX         ",
"        XO    .$OoOOOOoOOOoOOO$.$OOOooooooOOOoO$.o   XO         ",
"        XO  $$.$OoOOOOoOOOoOOO$.$OOOoOOOOoOOOoO$.o   XO         ",
"        XO  $$.$OooooooOOOoOOO$.$OOOoOOOOoOOOoO$.oo  XO         ",
"        XO $$$.$OoOOOOoOOOoOOO$.$OOOoOOOOoOOOoO$.ooo XO         ",
"        XO$$$$.$OoOOOOoOOOoOOO$.$OOOoOOOOoOOOoO$.ooo$XO         ",
"        XO$$$$.$XoOOOOoOOOoOOX$.$XOOoOOOOoOOOoO$.ooo$XO         ",
"       $XO$$$o.oXoXXXXoXXXoXXXo.oXXXoXXXXoXXXoXo.oo$$XOo        ",
"      $$XO$ooo..ooooooooooooooo.ooooooooooooooo..o$$$XOoo       ",
"      $$XOoooo...................................$$$$XOo$       ",
"      $XXOXooo%%...............................%%$$$XXOX$$$     ",
"    $$$OXOOoo$$$%%%%%%%%%%%%%%%%%%%%%%%%%%%%%%%$$$$$OXOO$$$     ",
"    $$$$$$$$$$$$$$$$$$$$$$$$$$$$$$$$$$$$$$$$$$$$$$$$$$$$$$$     ",
"     $$$$$$$$$$$$$$$$$$$$$$$$$$$$$$$$$$$$$$$$$$$$$$$$$$$$$      ",
"                                                                ",
"                                                                ",
"                                                                ",
"                                                                ",
"                                                                ",
"                                                                ",
"                                                                ",
"                                                                "
};
