/* XPM */
static char *_5e1ba9001f14ec385ffe45f05e1730cAzmTXR9X2CuNUQc2[] = {
/* columns rows colors chars-per-pixel */
"58 56 149 2 ",
"   c None",
".  c #61191D",
"X  c #62191D",
"o  c #63191D",
"O  c #64191E",
"+  c #65191E",
"@  c #641A1E",
"#  c #661A1E",
"$  c #671B1E",
"%  c #681A1F",
"&  c #691A1F",
"*  c #6A1A20",
"=  c #6B1A20",
"-  c #6D1A20",
";  c #6D1A21",
":  c #6E1A21",
">  c #6F1B21",
",  c #691C21",
"<  c #681D21",
"1  c #681E21",
"2  c #6D1D20",
"3  c #701B21",
"4  c #721B22",
"5  c #731B22",
"6  c #741B22",
"7  c #741B23",
"8  c #751B23",
"9  c #761B23",
"0  c #771B23",
"q  c #731F21",
"w  c #771B24",
"e  c #721F24",
"r  c #781D23",
"t  c #781C24",
"y  c #791C24",
"u  c #7A1C24",
"i  c #7B1C25",
"p  c #7C1C25",
"a  c #7C1F27",
"s  c #6C2024",
"d  c #6F2125",
"f  c #6F2225",
"g  c #702226",
"h  c #792123",
"j  c #7A2026",
"k  c #7D2024",
"l  c #7C2027",
"z  c #762629",
"x  c #7C2128",
"c  c #801E26",
"v  c #822025",
"b  c #862526",
"n  c #8C2727",
"m  c #822129",
"M  c #8D2329",
"N  c #8E2329",
"B  c #8C2428",
"V  c #88252D",
"C  c #87292F",
"Z  c #802C2F",
"A  c #912629",
"S  c #922929",
"D  c #9A292B",
"F  c #982B2A",
"G  c #9B2A2B",
"H  c #9E2C2B",
"J  c #9B282C",
"K  c #892930",
"L  c #8D2A30",
"P  c #8E2E33",
"I  c #8E2E34",
"U  c #902E34",
"Y  c #942F35",
"T  c #873134",
"R  c #8F3638",
"E  c #943337",
"W  c #953536",
"Q  c #983536",
"!  c #963338",
"~  c #9A3339",
"^  c #9B373C",
"/  c #9C373C",
"(  c #9B3C3F",
")  c #A42D2D",
"_  c #A42E2D",
"`  c #AB2F2F",
"'  c #AA302E",
"]  c #A03636",
"[  c #AE3130",
"{  c #A93635",
"}  c #AB3635",
"|  c #A1383D",
" . c #B03230",
".. c #B63331",
"X. c #B63431",
"o. c #B13735",
"O. c #B43735",
"+. c #B73735",
"@. c #BC3633",
"#. c #BD3633",
"$. c #BE3633",
"%. c #BA3734",
"&. c #BC3834",
"*. c #BF3834",
"=. c #C03734",
"-. c #C23834",
";. c #C33A36",
":. c #C43B37",
">. c #C53E3A",
",. c #9F3F41",
"<. c #A33B40",
"1. c #A13C40",
"2. c #A23C40",
"3. c #A73D42",
"4. c #A64144",
"5. c #A74446",
"6. c #A84144",
"7. c #AD4146",
"8. c #AF4447",
"9. c #AC4548",
"0. c #AF4548",
"q. c #B3464A",
"w. c #B64A4D",
"e. c #BE484A",
"r. c #B94A4E",
"t. c #BC4F51",
"y. c #BF4F52",
"u. c #BE5354",
"i. c #C24544",
"p. c #C94441",
"a. c #CA4846",
"s. c #CC4947",
"d. c #CF4F4D",
"f. c #D04F4D",
"g. c #C55456",
"h. c #C65858",
"j. c #CB585A",
"k. c #D55856",
"l. c #D55857",
"z. c #D65A58",
"x. c #D05D5E",
"c. c #D15D5E",
"v. c #D65F5F",
"b. c #D85D5D",
"n. c #D56161",
"m. c #D76262",
"M. c #DB6363",
"N. c #DC6464",
"B. c #DD6666",
/* pixels */
"                                                            B.B.B.                                                  ",
"                                                        B.B.B.B.B.B.                                                ",
"                                                      B.B.B.B.B.B.B.                                                ",
"                                                    B.B.B.B.B.B.B.B.B.                                              ",
"                                                  B.B.B.B.B.B.B.B.B.B.                                        -.    ",
"    -.                                          B.B.B.B.B.B.B.B.B.B.B.                                      -.-.    ",
"    -.-.                                      B.B.B.B.B.B.B.B.B.B.B.B.B.  B.B.                            -.-.-.    ",
"    -.-.-.                    B.B.          B.B.B.B.B.B.B.B.B.B.B.B.B.B.B.B.B.B.                      -.-.-.-.-.    ",
"    -.-.-.-.                B.B.B.B.      B.B.B.B.B.B.B.B.B.B.B.B.B.B.B.B.B.B.B.B.                  -.-.-.-.-.      ",
"    -.-.-.-.-.            B.B.B.B.B.B.  B.B.B.B.B.B.B.B.B.B.B.B.B.B.B.B.B.B.B.B.B.B.              -.-.-.-.-.-.      ",
"    -.-.-.-.-.-.        B.B.B.B.B.B.B.B.B.B.B.B.B.B.B.B.B.B.B.B.B.B.B.B.B.B.B.B.B.B.B.          -.-.-.-.-.-.-.      ",
"      -.-.-.-.-.-.      B.B.B.B.B.B.B.B.B.B.B.B.B.B.B.B.B.B.B.B.B.B.B.B.B.B.B.B.B.B.B.B.    -.-.-.-.-.-.-.-.        ",
"      -.-.-.-.-.-.-.    B.B.B.B.B.B.B.B.B.B.B.B.B.B.B.B.B.B.B.B.B.B.B.B.B.B.B.B.B.B.B.B.  -.-.-.-.-.-.-.-.-.        ",
"      -.-.-.-.-.-.-.-.z.B.B.B.B.B.B.B.B.B.B.B.B.B.B.B.B.B.B.B.B.B.B.B.B.B.B.B.B.B.B.B.B.B.:.-.-.-.-.-.-.-.          ",
"        -.-.-.-.-.-.-.-.b.B.B.B.B.B.B.B.B.B.B.B.B.B.B.B.B.B.B.B.B.B.B.B.B.B.B.B.B.B.B.B.B.f.-.-.-.-.-.-.-.      -.  ",
"        -.-.-.-.-.-.-.-.:.b.B.B.B.B.B.B.B.B.B.B.B.B.B.B.B.B.B.B.B.B.B.B.B.B.B.B.B.B.B.B.B.M.:.-.-.-.-.-.    -.-.-.  ",
"-.      -.-.-.-.-.-.-.-.-.>.B.B.B.B.B.B.B.B.B.B.B.B.B.B.B.B.B.B.B.B.B.B.B.B.B.B.B.B.B.B.B.B.f.-.-.-.-.    -.-.-.-.  ",
"-.-.      -.-.-.-.-.-.-.-.-.k.B.B.B.B.B.B.B.B.B.B.B.B.B.B.B.B.B.B.B.B.B.B.B.B.B.B.B.B.B.B.B.M.-.-.-.-.  -.-.-.-.    ",
"-.-.-.    -.-.-.-.-.-.-.-.-.d.B.B.B.B.B.B.B.B.B.B.B.B.B.B.B.B.B.B.B.B.B.B.B.B.B.B.B.B.B.B.B.B.s.-.` -.-.-.-.-.-.    ",
"-.-.-.-.    -.-.-.-.-.-.-.-.d.B.B.B.B.B.B.B.B.B.B.B.B.B.B.B.B.B.B.B.B.B.B.B.B.B.B.B.B.B.B.B.B.v.M ..-.-.-.-.-.-.    ",
"  -.-.-.-.    -.-.-.-.-.-.-.i.B.B.B.B.B.B.B.B.B.B.B.B.B.B.B.B.B.B.B.B.B.B.B.B.B.B.B.B.B.B.B.B.B.a.-.-.-.-.-.-.      ",
"  -.-.-.-.-.    -.-.-.-.-.-.l 1.B.B.B.B.B.B.B.B.B.B.B.B.B.B.B.B.B.B.B.B.B.B.B.B.B.B.B.B.B.B.B.B.k.-.-.-.-.-.-.      ",
"  -.-.-.-.-.-.G A #.-.-.-.) : 5 ^ B.B.B.B.B.B.B.B.B.B.B.B.B.B.B.B.B.B.B.B.B.B.B.B.B.B.B.B.B.B.B.B.-.-.-.-.-.        ",
"  -.-.-.-.-.-.-.A r A G B 5 8 t 8 ^ B.B.B.B.B.B.B.B.B.B.B.B.B.B.B.B.B.B.B.B.B.B.B.B.B.B.B.B.B.B.B.p.-.-.=.          ",
"    -.-.-.-.-.-.#.5 5 5 5 5 t p p t / B.B.B.B.B.B.B.B.B.B.B.B.B.B.B.B.B.B.B.B.B.B.B.B.B.B.B.B.B.B.s.-.#.M           ",
"    -.-.-.-.-.-.-.v 5 5 5 8 p p p p t ! m.B.B.B.B.B.B.B.B.B.B.B.B.B.B.B.B.B.B.B.B.B.B.B.B.B.B.B.B.e.J c p           ",
"      -.-.-.-.-.-.v 5 5 8 t p p p p p t l t.B.B.B.B.B.B.B.B.B.B.B.B.B.B.B.B.B.1.j 6.m.B.B.B.B.B.B.Y p p p           ",
"        #.-.-.-.#.5 5 8 t p p p p p p p p t I w.B.B.B.B.B.B.B.x.^ w.B.B.B.B.^ 5 5 8 j 9.m.B.B.B.r.p p p p           ",
"        v [ -.#.A 5 8 t p p p p p p p p p p p t 8 P 6.6.6.6.C 5 5 5 E t.t.C 5 8 t p p t t K U L p p p p p           ",
"      5 5 5 5 5 5 8 t p p p p p p p p p p t 8 8 t t 8 8 5 8 8 t t t t t 8 8 t p p p p p p p p p p p p 8 : =         ",
"      5 5 5 5 5 5 t p p p p p p p t 5 % . . . . . . % 8 p p p p p p p p p p p p p p p p p p p p p t % . . . .       ",
"      5 5 5 5 5 8 p p p p p p p : . . . . . . . . . . . % t p p p p p p p p p p p p p p p p p p 8 # . . . . .       ",
"        5 5 5 5 t p p p p p 8 # . . . . . . . . . . . . . # t p p p p p p p p p p p p p p p p t # . . . . . .       ",
"      8 5 5 5 5 t p p p p t . . . . . . . . . . . . . . . . % p p p p p p p p p p p p p p p p % . . . . . . .       ",
"      8 5 5 5 8 p p p p p : . . . . . . . . . . . . . . . . . 5 p p p p p p p p p p p p p p 8 . . . . . . . .       ",
"      5 5 5 5 8 p p p p p # . . . . . . . . . . q S S n # . . # p p p p p p p p p p p p p p % . . . S X.-.X.b       ",
"      5 5 5 5 8 p p p p p . . . . . . . . . . G -.-.-.-.#.q . . 8 p p p p p p p p p p p p t . . . S -.*.{ { *.      ",
"    8 5 5 5 5 8 p p p p p . . . . . . . . . n -.-.o.] ] o.#.2 . : p p p p p p p p p p p p 5 . . . -.*.Q W W Q *.    ",
"    5 5 5 5 5 8 p p p p p % . . . . . . . . X.-.o.W W W W o.S . % p p p p p p p p p p p p : . . h -.O.W W W W O.    ",
"    5 5 5 5 5 5 p p p p p : . . . . . . . . -.-.] W W W W ] ' . # p p p p p 8 : 5 p p p p : . . 2 -.%.W W W W %.    ",
"    5 5 5 5 5 5 t p p p p 8 . . . . . . . . -.-.] W W W W ] ) . # p p p p : . . . # t p p : . . . ' -.{ W W { -.    ",
"    8 5 5 5 5 5 t p p p p t . . . . . . . . ' -.O.W W W W O.b . # p p p e . . . . . # t p : . . . # ' -.-.-.)       ",
"        8 5 5 5 8 p p p p p = . . . . . . . q -.-.O.] ] O. .. . . 8 x < . . . . . . . . . . . . . . . q h 2 .       ",
"        5 5 5 5 5 t p p p p t . . . . . . . . h X.-.-.-.H # . . . . . . Z 9.<.R . . . . . . z . . . . . . . .       ",
"        5 5 5 5 5 8 p p p p p 5 . . . . . . . . . 2 h # . . . . . . < 4.q.g.Y m.s . . . g h.h.< . . . . . . .       ",
"        8 5 5 5 5 5 t p p p p p = . . . . . . . . . . . . . s . . s h.g.m ~ m | ~ 5.,.( m.B.B.h.# . . . . % 8       ",
"          8 5 5 5 5 8 p p p p p p 5 . . . . . . . . . . . T m.h.u.8.B.q.p p p p V B.j.t.B.B.B.B.p : : 8 t p p       ",
"            8 5 5 5 5 8 p p p p p p t : # . . . . . . = 9.B.B.B.B.Y g.7.p p p p p m.| 7.B.B.B.t.p p p p p p p       ",
"                5 5 5 5 t p p p p p p p p p t 8 8 t p p Y B.B.B.B.m p p p p p p p p p Y B.B.B.~ p p p p p p p       ",
"                  8 5 5 5 t p p p p p p p p p p p p p p p g.B.B.B.p p p p p p p p p p V B.B.x.p p p p p p p         ",
"                      8 5 5 w p p p p p p p p p p p p p p Y B.B.j.p p p p p p p p p p p x.B.3.p p p p p p p         ",
"                          8 8 8 t p p p p p p p p p p p p p t.B.t.p p p p p p p p p p p 7.g.m p p p p p p           ",
"                                  p p p p p p p p p p p p p V r.Y p p p p p p p p p p p p p p p p                   ",
"                                      p p p p p p p p p p p p p p p p p p p p p p p p p p p p p                     ",
"                                            p p p p p p p p p p p p p p p p p p p p p p p p p                       ",
"                                                      p p p p p p p p p p p p p p                                   "
};
